dist/svgs/align-right.svg

<svg xmlns="http://www.w3.org/2000/svg" viewBox="0 0 512 512"><path d="M171 227h341v66H171v-66zm188 147h153v65H359v-65zM512 81v65H0V81h512z"/></svg>

<?xml version="1.0" encoding="UTF-8" standalone="no"?><svg   xmlns:svg="http://www.w3.org/2000/svg"   xmlns="http://www.w3.org/2000/svg"   version="1.1"   width="512"   height="512"   viewBox="0 0 512 512">  <path     d="M171 227H512V293H171V227zM359 374H512V439H359V374zM512 81V146H0V81H512z"     id="align-right" /></svg>
